X:45
T:Beechen Grove's New Hall
C:Charles Bolton, 1987
M:6/8
S:Colin Hume's website,  colinhume.com  - chords can also be printed below the stave.
Q:3/8=115
M:6/8
L:1/8
K:G
P:A
"G"Bcd "C"e2e | "Am"ABc "D"d2D | "G"GAB "C"c2c | "D"FGA "Bm"B3 |\
"C"EFG "D7"ABc | "G"dBA "Em"GAB | "Am"cAG "D"FED | "Am"CDE "D7"FGA |
"G"Bcd "C"e2e | "Am"ABc "D"d2D | "G"GAB "C"c2c | "D"FGA "Bm"B3 |\
"C"EFG "D7"ABc | "G"dBA "Em"GAB | "Am"cAG "D7"FGA | "G"G3-G3 |
P:B
"F"=FGA "G7"BAG | "Em"E3 "Am"A3 | "F"=FGA "G7"Bcd | "C"e2d "Am"cBA |\
"G"GAB "A7"^cBA | "F#m"F3 "Bm"B3 | "G"GAB "A7"^cde | "D"f2e "D7"d2c |
"G"Bcd "C"e2e | "Am"ABc "D"d2D | "G"GAB "C"c2c | "D"FGA "Bm"B3 |\
"C"EFG "D7"ABc | "Bm"def "Em"g3 | "Am"efg "D7"agf | "G"g3-g3 |]

